icons/modern/blue-heart.svg

<svg width="32" height="32" viewBox="0 0 32 32" fill="none" xmlns="http://www.w3.org/2000/svg">
<path d="M15.1041 29.2274C15.6391 29.5259 16.2827 29.5094 16.8146 29.2054C20.3976 27.1576 26.624 22.4438 29.0692 16.3207C32.6583 8.34828 24.2311 1.98422 18.4068 6.56148C17.7992 7.03895 17.0353 7.58541 16.5096 8.10307C16.2719 8.33712 15.8531 8.36098 15.6063 8.13649C14.9152 7.50765 13.835 6.70099 13.1413 6.23165C8.17592 2.87226 -0.858693 7.30051 2.99515 16.7514C4.40691 20.9936 11.1344 27.0121 15.1041 29.2274Z" fill="url(#paint0_radial_7320_6102)"/>
<path d="M15.1041 29.2274C15.6391 29.5259 16.2827 29.5094 16.8146 29.2054C20.3976 27.1576 26.624 22.4438 29.0692 16.3207C32.6583 8.34828 24.2311 1.98422 18.4068 6.56148C17.7992 7.03895 17.0353 7.58541 16.5096 8.10307C16.2719 8.33712 15.8531 8.36098 15.6063 8.13649C14.9152 7.50765 13.835 6.70099 13.1413 6.23165C8.17592 2.87226 -0.858693 7.30051 2.99515 16.7514C4.40691 20.9936 11.1344 27.0121 15.1041 29.2274Z" fill="url(#paint1_radial_7320_6102)"/>
<path d="M15.1041 29.2274C15.6391 29.5259 16.2827 29.5094 16.8146 29.2054C20.3976 27.1576 26.624 22.4438 29.0692 16.3207C32.6583 8.34828 24.2311 1.98422 18.4068 6.56148C17.7992 7.03895 17.0353 7.58541 16.5096 8.10307C16.2719 8.33712 15.8531 8.36098 15.6063 8.13649C14.9152 7.50765 13.835 6.70099 13.1413 6.23165C8.17592 2.87226 -0.858693 7.30051 2.99515 16.7514C4.40691 20.9936 11.1344 27.0121 15.1041 29.2274Z" fill="url(#paint2_linear_7320_6102)"/>
<path d="M15.1041 29.2274C15.6391 29.5259 16.2827 29.5094 16.8146 29.2054C20.3976 27.1576 26.624 22.4438 29.0692 16.3207C32.6583 8.34828 24.2311 1.98422 18.4068 6.56148C17.7992 7.03895 17.0353 7.58541 16.5096 8.10307C16.2719 8.33712 15.8531 8.36098 15.6063 8.13649C14.9152 7.50765 13.835 6.70099 13.1413 6.23165C8.17592 2.87226 -0.858693 7.30051 2.99515 16.7514C4.40691 20.9936 11.1344 27.0121 15.1041 29.2274Z" fill="url(#paint3_radial_7320_6102)"/>
<path d="M15.1041 29.2274C15.6391 29.5259 16.2827 29.5094 16.8146 29.2054C20.3976 27.1576 26.624 22.4438 29.0692 16.3207C32.6583 8.34828 24.2311 1.98422 18.4068 6.56148C17.7992 7.03895 17.0353 7.58541 16.5096 8.10307C16.2719 8.33712 15.8531 8.36098 15.6063 8.13649C14.9152 7.50765 13.835 6.70099 13.1413 6.23165C8.17592 2.87226 -0.858693 7.30051 2.99515 16.7514C4.40691 20.9936 11.1344 27.0121 15.1041 29.2274Z" fill="url(#paint4_radial_7320_6102)"/>
<path d="M15.1041 29.2274C15.6391 29.5259 16.2827 29.5094 16.8146 29.2054C20.3976 27.1576 26.624 22.4438 29.0692 16.3207C32.6583 8.34828 24.2311 1.98422 18.4068 6.56148C17.7992 7.03895 17.0353 7.58541 16.5096 8.10307C16.2719 8.33712 15.8531 8.36098 15.6063 8.13649C14.9152 7.50765 13.835 6.70099 13.1413 6.23165C8.17592 2.87226 -0.858693 7.30051 2.99515 16.7514C4.40691 20.9936 11.1344 27.0121 15.1041 29.2274Z" fill="url(#paint5_linear_7320_6102)"/>
<path d="M15.1041 29.2274C15.6391 29.5259 16.2827 29.5094 16.8146 29.2054C20.3976 27.1576 26.624 22.4438 29.0692 16.3207C32.6583 8.34828 24.2311 1.98422 18.4068 6.56148C17.7992 7.03895 17.0353 7.58541 16.5096 8.10307C16.2719 8.33712 15.8531 8.36098 15.6063 8.13649C14.9152 7.50765 13.835 6.70099 13.1413 6.23165C8.17592 2.87226 -0.858693 7.30051 2.99515 16.7514C4.40691 20.9936 11.1344 27.0121 15.1041 29.2274Z" fill="url(#paint6_radial_7320_6102)"/>
<path d="M15.1041 29.2274C15.6391 29.5259 16.2827 29.5094 16.8146 29.2054C20.3976 27.1576 26.624 22.4438 29.0692 16.3207C32.6583 8.34828 24.2311 1.98422 18.4068 6.56148C17.7992 7.03895 17.0353 7.58541 16.5096 8.10307C16.2719 8.33712 15.8531 8.36098 15.6063 8.13649C14.9152 7.50765 13.835 6.70099 13.1413 6.23165C8.17592 2.87226 -0.858693 7.30051 2.99515 16.7514C4.40691 20.9936 11.1344 27.0121 15.1041 29.2274Z" fill="url(#paint7_radial_7320_6102)"/>
<path d="M15.2188 7.83189L15.5663 8.1501C16.5203 9.02347 18.0647 8.77988 18.9307 7.81916C19.8443 6.80552 21.0701 5.75575 22.5554 5.02783C21.1516 5.05859 19.7137 5.53477 18.4068 6.56183C18.256 6.68033 18.0956 6.80308 17.9316 6.92859C17.4347 7.30878 16.9049 7.71424 16.5096 8.10343C16.2719 8.33748 15.8531 8.36134 15.6063 8.13685C15.487 8.02827 15.3561 7.91439 15.2175 7.79786L15.2188 7.83189Z" fill="url(#paint8_linear_7320_6102)"/>
<g filter="url(#filter0_f_7320_6102)">
<path d="M15.7954 10.4375V17.6621C15.7954 18.5276 16.8157 18.9788 17.422 18.3612C19.6733 16.0674 21.6753 13.1727 19.6832 10.8328C18.9488 9.97023 17.5306 9.42282 16.3898 9.62314C16.0129 9.68934 15.7954 10.0547 15.7954 10.4375Z" fill="#266FF9"/>
</g>
<g filter="url(#filter1_f_7320_6102)">
<ellipse cx="22.9512" cy="14.1189" rx="7.76707" ry="5.08722" transform="rotate(-67.6274 22.9512 14.1189)" fill="url(#paint9_radial_7320_6102)"/>
</g>
<g filter="url(#filter2_f_7320_6102)">
<path d="M14.8397 9.20672L15.0447 20.238C8.16972 13.5505 6.93859 8.75983 9.27719 7.15306C10.9472 6.00565 14.0897 7.64422 14.8397 9.20672Z" fill="url(#paint10_radial_7320_6102)"/>
</g>
<g filter="url(#filter3_f_7320_6102)">
<path d="M8.44077 6.43921C9.52741 6.30431 12.4647 6.43921 14.8398 9.87195" stroke="url(#paint11_linear_7320_6102)" stroke-opacity="0.5" stroke-width="0.25" stroke-linecap="round"/>
</g>
<g filter="url(#filter4_f_7320_6102)">
<path d="M22.25 6.64429C20.9792 7.12345 17.4625 9.51929 17.3125 13.2693" stroke="#266FF9" stroke-linecap="round"/>
</g>
<defs>
<filter id="filter0_f_7320_6102" x="13.7954" y="7.58179" width="8.70459" height="13.0654" filterUnits="userSpaceOnUse" color-interpolation-filters="sRGB">
<feFlood flood-opacity="0" result="BackgroundImageFix"/>
<feBlend mode="normal" in="SourceGraphic" in2="BackgroundImageFix" result="shape"/>
<feGaussianBlur stdDeviation="1" result="effect1_foregroundBlur_7320_6102"/>
</filter>
<filter id="filter1_f_7320_6102" x="15.8944" y="5.17822" width="14.1137" height="17.8813" filterUnits="userSpaceOnUse" color-interpolation-filters="sRGB">
<feFlood flood-opacity="0" result="BackgroundImageFix"/>
<feBlend mode="normal" in="SourceGraphic" in2="BackgroundImageFix" result="shape"/>
<feGaussianBlur stdDeviation="0.75" result="effect1_foregroundBlur_7320_6102"/>
</filter>
<filter id="filter2_f_7320_6102" x="5.19226" y="3.76855" width="12.8525" height="19.4695" filterUnits="userSpaceOnUse" color-interpolation-filters="sRGB">
<feFlood flood-opacity="0" result="BackgroundImageFix"/>
<feBlend mode="normal" in="SourceGraphic" in2="BackgroundImageFix" result="shape"/>
<feGaussianBlur stdDeviation="1.5" result="effect1_foregroundBlur_7320_6102"/>
</filter>
<filter id="filter3_f_7320_6102" x="7.31576" y="5.28174" width="8.64903" height="5.71533" filterUnits="userSpaceOnUse" color-interpolation-filters="sRGB">
<feFlood flood-opacity="0" result="BackgroundImageFix"/>
<feBlend mode="normal" in="SourceGraphic" in2="BackgroundImageFix" result="shape"/>
<feGaussianBlur stdDeviation="0.5" result="effect1_foregroundBlur_7320_6102"/>
</filter>
<filter id="filter4_f_7320_6102" x="14.8125" y="4.14404" width="9.93764" height="11.6252" filterUnits="userSpaceOnUse" color-interpolation-filters="sRGB">
<feFlood flood-opacity="0" result="BackgroundImageFix"/>
<feBlend mode="normal" in="SourceGraphic" in2="BackgroundImageFix" result="shape"/>
<feGaussianBlur stdDeviation="1" result="effect1_foregroundBlur_7320_6102"/>
</filter>
<radialGradient id="paint0_radial_7320_6102" cx="0" cy="0" r="1" gradientUnits="userSpaceOnUse" gradientTransform="translate(15.7698 5.65939) rotate(90) scale(25.0559 26.6012)">
<stop offset="0.204279" stop-color="#2A7BF7"/>
<stop offset="0.527969" stop-color="#396DFF"/>
<stop offset="1" stop-color="#4A69FF"/>
</radialGradient>
<radialGradient id="paint1_radial_7320_6102" cx="0" cy="0" r="1" gradientUnits="userSpaceOnUse" gradientTransform="translate(12.2147 29.7153) rotate(-57.2932) scale(30.305 28.3828)">
<stop offset="0.801342" stop-color="#91B3F7" stop-opacity="0"/>
<stop offset="1" stop-color="#91B3F7"/>
</radialGradient>
<linearGradient id="paint2_linear_7320_6102" x1="17.6324" y1="16.1589" x2="25.6448" y2="25.6943" gradientUnits="userSpaceOnUse">
<stop offset="0.694491" stop-color="#B694FF" stop-opacity="0"/>
<stop offset="0.933555" stop-color="#9F72FF"/>
</linearGradient>
<radialGradient id="paint3_radial_7320_6102" cx="0" cy="0" r="1" gradientUnits="userSpaceOnUse" gradientTransform="translate(15.8949 6.09026) rotate(90) scale(26.6875 33.0073)">
<stop offset="0.812315" stop-color="#3156BE" stop-opacity="0"/>
<stop offset="0.978592" stop-color="#3156BE"/>
</radialGradient>
<radialGradient id="paint4_radial_7320_6102" cx="0" cy="0" r="1" gradientUnits="userSpaceOnUse" gradientTransform="translate(20.5625 13.1439) rotate(142.559) scale(18.8134 26.9324)">
<stop offset="0.641927" stop-color="#3156BE" stop-opacity="0"/>
<stop offset="1" stop-color="#3156BE"/>
</radialGradient>
<linearGradient id="paint5_linear_7320_6102" x1="16.6391" y1="16.5562" x2="7.1875" y2="27.2064" gradientUnits="userSpaceOnUse">
<stop offset="0.694491" stop-color="#9F72FF" stop-opacity="0"/>
<stop offset="0.885417" stop-color="#B694FF"/>
</linearGradient>
<radialGradient id="paint6_radial_7320_6102" cx="0" cy="0" r="1" gradientUnits="userSpaceOnUse" gradientTransform="translate(19.4647 27.7153) rotate(-125.423) scale(31.5334 31.9949)">
<stop offset="0.66943" stop-color="#3156BE" stop-opacity="0"/>
<stop offset="1" stop-color="#3156BE"/>
</radialGradient>
<radialGradient id="paint7_radial_7320_6102" cx="0" cy="0" r="1" gradientUnits="userSpaceOnUse" gradientTransform="translate(15.4472 13.8413) rotate(90) scale(17.499 20.0528)">
<stop offset="0.820913" stop-color="#9F72FF" stop-opacity="0"/>
<stop offset="0.933555" stop-color="#B694FF"/>
</radialGradient>
<linearGradient id="paint8_linear_7320_6102" x1="17.125" y1="7.44549" x2="18.8865" y2="8.86314" gradientUnits="userSpaceOnUse">
<stop stop-color="#4A65AD"/>
<stop offset="0.679707" stop-color="#4A65AD" stop-opacity="0"/>
</linearGradient>
<radialGradient id="paint9_radial_7320_6102" cx="0" cy="0" r="1" gradientUnits="userSpaceOnUse" gradientTransform="translate(32.8356 15.375) rotate(-173.542) scale(15.5528 7.3671)">
<stop stop-color="#94B9FC"/>
<stop offset="1" stop-color="#7D9AFF" stop-opacity="0"/>
</radialGradient>
<radialGradient id="paint10_radial_7320_6102" cx="0" cy="0" r="1" gradientUnits="userSpaceOnUse" gradientTransform="translate(15.875 14.1442) rotate(-151.049) scale(8.77992 11.2827)">
<stop stop-color="#94B9FC"/>
<stop offset="1" stop-color="#7D9AFF" stop-opacity="0"/>
</radialGradient>
<linearGradient id="paint11_linear_7320_6102" x1="13.0695" y1="8.18227" x2="10.4153" y2="6.84352" gradientUnits="userSpaceOnUse">
<stop stop-color="#94B9FC"/>
<stop offset="1" stop-color="#94B9FC" stop-opacity="0"/>
</linearGradient>
</defs>
</svg>

<svg width="32" height="32" fill="none" xmlns="http://www.w3.org/2000/svg"><path d="M15.104 29.227a1.732 1.732 0 0 0 1.71-.022c3.584-2.047 9.81-6.761 12.255-12.884 3.59-7.973-4.838-14.337-10.662-9.76-.608.478-1.372 1.024-1.897 1.542-.238.234-.657.258-.904.033-.69-.628-1.771-1.435-2.465-1.904-4.965-3.36-14 1.069-10.146 10.52 1.412 4.242 8.14 10.26 12.11 12.475Z" fill="url(#a)"/><path d="M15.104 29.227a1.732 1.732 0 0 0 1.71-.022c3.584-2.047 9.81-6.761 12.255-12.884 3.59-7.973-4.838-14.337-10.662-9.76-.608.478-1.372 1.024-1.897 1.542-.238.234-.657.258-.904.033-.69-.628-1.771-1.435-2.465-1.904-4.965-3.36-14 1.069-10.146 10.52 1.412 4.242 8.14 10.26 12.11 12.475Z" fill="url(#b)"/><path d="M15.104 29.227a1.732 1.732 0 0 0 1.71-.022c3.584-2.047 9.81-6.761 12.255-12.884 3.59-7.973-4.838-14.337-10.662-9.76-.608.478-1.372 1.024-1.897 1.542-.238.234-.657.258-.904.033-.69-.628-1.771-1.435-2.465-1.904-4.965-3.36-14 1.069-10.146 10.52 1.412 4.242 8.14 10.26 12.11 12.475Z" fill="url(#c)"/><path d="M15.104 29.227a1.732 1.732 0 0 0 1.71-.022c3.584-2.047 9.81-6.761 12.255-12.884 3.59-7.973-4.838-14.337-10.662-9.76-.608.478-1.372 1.024-1.897 1.542-.238.234-.657.258-.904.033-.69-.628-1.771-1.435-2.465-1.904-4.965-3.36-14 1.069-10.146 10.52 1.412 4.242 8.14 10.26 12.11 12.475Z" fill="url(#d)"/><path d="M15.104 29.227a1.732 1.732 0 0 0 1.71-.022c3.584-2.047 9.81-6.761 12.255-12.884 3.59-7.973-4.838-14.337-10.662-9.76-.608.478-1.372 1.024-1.897 1.542-.238.234-.657.258-.904.033-.69-.628-1.771-1.435-2.465-1.904-4.965-3.36-14 1.069-10.146 10.52 1.412 4.242 8.14 10.26 12.11 12.475Z" fill="url(#e)"/><path d="M15.104 29.227a1.732 1.732 0 0 0 1.71-.022c3.584-2.047 9.81-6.761 12.255-12.884 3.59-7.973-4.838-14.337-10.662-9.76-.608.478-1.372 1.024-1.897 1.542-.238.234-.657.258-.904.033-.69-.628-1.771-1.435-2.465-1.904-4.965-3.36-14 1.069-10.146 10.52 1.412 4.242 8.14 10.26 12.11 12.475Z" fill="url(#f)"/><path d="M15.104 29.227a1.732 1.732 0 0 0 1.71-.022c3.584-2.047 9.81-6.761 12.255-12.884 3.59-7.973-4.838-14.337-10.662-9.76-.608.478-1.372 1.024-1.897 1.542-.238.234-.657.258-.904.033-.69-.628-1.771-1.435-2.465-1.904-4.965-3.36-14 1.069-10.146 10.52 1.412 4.242 8.14 10.26 12.11 12.475Z" fill="url(#g)"/><path d="M15.104 29.227a1.732 1.732 0 0 0 1.71-.022c3.584-2.047 9.81-6.761 12.255-12.884 3.59-7.973-4.838-14.337-10.662-9.76-.608.478-1.372 1.024-1.897 1.542-.238.234-.657.258-.904.033-.69-.628-1.771-1.435-2.465-1.904-4.965-3.36-14 1.069-10.146 10.52 1.412 4.242 8.14 10.26 12.11 12.475Z" fill="url(#h)"/><path d="m15.219 7.832.347.318c.954.873 2.499.63 3.365-.33.913-1.014 2.14-2.064 3.624-2.792-1.403.03-2.841.507-4.148 1.534-.151.118-.311.241-.475.367-.497.38-1.027.785-1.422 1.174-.238.234-.657.258-.904.034-.119-.109-.25-.223-.389-.34l.002.035Z" fill="url(#i)"/><g filter="url(#j)"><path d="M15.795 10.438v7.224c0 .866 1.02 1.317 1.627.7 2.251-2.295 4.253-5.19 2.261-7.53-.734-.862-2.152-1.41-3.293-1.209-.377.066-.595.432-.595.815Z" fill="#266FF9"/></g><g filter="url(#k)"><ellipse cx="22.951" cy="14.119" rx="7.767" ry="5.087" transform="rotate(-67.627 22.951 14.119)" fill="url(#l)"/></g><g filter="url(#m)"><path d="m14.84 9.207.205 11.031C8.17 13.55 6.939 8.76 9.277 7.153c1.67-1.147 4.813.491 5.563 2.054Z" fill="url(#n)"/></g><g filter="url(#o)"><path d="M8.44 6.44c1.087-.136 4.025 0 6.4 3.432" stroke="url(#p)" stroke-opacity=".5" stroke-width=".25" stroke-linecap="round"/></g><g filter="url(#q)"><path d="M22.25 6.644c-1.27.48-4.788 2.875-4.938 6.625" stroke="#266FF9" stroke-linecap="round"/></g><defs><radialGradient id="a" cx="0" cy="0" r="1" gradientUnits="userSpaceOnUse" gradientTransform="matrix(0 25.0559 -26.6012 0 15.77 5.66)"><stop offset=".204" stop-color="#2A7BF7"/><stop offset=".528" stop-color="#396DFF"/><stop offset="1" stop-color="#4A69FF"/></radialGradient><radialGradient id="b" cx="0" cy="0" r="1" gradientUnits="userSpaceOnUse" gradientTransform="rotate(-57.293 33.306 3.678) scale(30.305 28.3828)"><stop offset=".801" stop-color="#91B3F7" stop-opacity="0"/><stop offset="1" stop-color="#91B3F7"/></radialGradient><radialGradient id="d" cx="0" cy="0" r="1" gradientUnits="userSpaceOnUse" gradientTransform="matrix(0 26.6875 -33.0073 0 15.895 6.09)"><stop offset=".812" stop-color="#3156BE" stop-opacity="0"/><stop offset=".979" stop-color="#3156BE"/></radialGradient><radialGradient id="e" cx="0" cy="0" r="1" gradientUnits="userSpaceOnUse" gradientTransform="matrix(-14.93746 11.4375 -16.3734 -21.38378 20.563 13.144)"><stop offset=".642" stop-color="#3156BE" stop-opacity="0"/><stop offset="1" stop-color="#3156BE"/></radialGradient><radialGradient id="g" cx="0" cy="0" r="1" gradientUnits="userSpaceOnUse" gradientTransform="rotate(-125.423 16.881 8.837) scale(31.5334 31.9949)"><stop offset=".669" stop-color="#3156BE" stop-opacity="0"/><stop offset="1" stop-color="#3156BE"/></radialGradient><radialGradient id="h" cx="0" cy="0" r="1" gradientUnits="userSpaceOnUse" gradientTransform="matrix(0 17.499 -20.0528 0 15.447 13.841)"><stop offset=".821" stop-color="#9F72FF" stop-opacity="0"/><stop offset=".934" stop-color="#B694FF"/></radialGradient><radialGradient id="l" cx="0" cy="0" r="1" gradientUnits="userSpaceOnUse" gradientTransform="rotate(-173.542 16.852 6.761) scale(15.5528 7.3671)"><stop stop-color="#94B9FC"/><stop offset="1" stop-color="#7D9AFF" stop-opacity="0"/></radialGradient><radialGradient id="n" cx="0" cy="0" r="1" gradientUnits="userSpaceOnUse" gradientTransform="rotate(-151.049 9.763 5.023) scale(8.77992 11.2827)"><stop stop-color="#94B9FC"/><stop offset="1" stop-color="#7D9AFF" stop-opacity="0"/></radialGradient><filter id="j" x="13.795" y="7.582" width="8.705" height="13.065" filterUnits="userSpaceOnUse" color-interpolation-filters="sRGB"><feFlood flood-opacity="0" result="BackgroundImageFix"/><feBlend in="SourceGraphic" in2="BackgroundImageFix" result="shape"/><feGaussianBlur stdDeviation="1" result="effect1_foregroundBlur_7320_6102"/></filter><filter id="k" x="15.894" y="5.178" width="14.114" height="17.881" filterUnits="userSpaceOnUse" color-interpolation-filters="sRGB"><feFlood flood-opacity="0" result="BackgroundImageFix"/><feBlend in="SourceGraphic" in2="BackgroundImageFix" result="shape"/><feGaussianBlur stdDeviation=".75" result="effect1_foregroundBlur_7320_6102"/></filter><filter id="m" x="5.192" y="3.769" width="12.852" height="19.47" filterUnits="userSpaceOnUse" color-interpolation-filters="sRGB"><feFlood flood-opacity="0" result="BackgroundImageFix"/><feBlend in="SourceGraphic" in2="BackgroundImageFix" result="shape"/><feGaussianBlur stdDeviation="1.5" result="effect1_foregroundBlur_7320_6102"/></filter><filter id="o" x="7.316" y="5.282" width="8.649" height="5.715" filterUnits="userSpaceOnUse" color-interpolation-filters="sRGB"><feFlood flood-opacity="0" result="BackgroundImageFix"/><feBlend in="SourceGraphic" in2="BackgroundImageFix" result="shape"/><feGaussianBlur stdDeviation=".5" result="effect1_foregroundBlur_7320_6102"/></filter><filter id="q" x="14.813" y="4.144" width="9.938" height="11.625" filterUnits="userSpaceOnUse" color-interpolation-filters="sRGB"><feFlood flood-opacity="0" result="BackgroundImageFix"/><feBlend in="SourceGraphic" in2="BackgroundImageFix" result="shape"/><feGaussianBlur stdDeviation="1" result="effect1_foregroundBlur_7320_6102"/></filter><linearGradient id="c" x1="17.632" y1="16.159" x2="25.645" y2="25.694" gradientUnits="userSpaceOnUse"><stop offset=".694" stop-color="#B694FF" stop-opacity="0"/><stop offset=".934" stop-color="#9F72FF"/></linearGradient><linearGradient id="f" x1="16.639" y1="16.556" x2="7.188" y2="27.206" gradientUnits="userSpaceOnUse"><stop offset=".694" stop-color="#9F72FF" stop-opacity="0"/><stop offset=".885" stop-color="#B694FF"/></linearGradient><linearGradient id="i" x1="17.125" y1="7.445" x2="18.887" y2="8.863" gradientUnits="userSpaceOnUse"><stop stop-color="#4A65AD"/><stop offset=".68" stop-color="#4A65AD" stop-opacity="0"/></linearGradient><linearGradient id="p" x1="13.069" y1="8.182" x2="10.415" y2="6.844" gradientUnits="userSpaceOnUse"><stop stop-color="#94B9FC"/><stop offset="1" stop-color="#94B9FC" stop-opacity="0"/></linearGradient></defs></svg>
